Newaita-dark/apps/22/keepassxc.svg

<svg height="22pt" viewBox="0 0 22 22" width="22pt" xmlns="http://www.w3.org/2000/svg" xmlns:xlink="http://www.w3.org/1999/xlink"><linearGradient id="a"><stop offset="0" stop-opacity=".313725"/><stop offset=".222222" stop-opacity=".27451"/><stop offset="1" stop-opacity="0"/></linearGradient><radialGradient id="b" cx="450.90894" cy="189.57936" gradientTransform="matrix(.00000012 -.0537161 -.0966889 -.00000007 30.609667 43.721791)" gradientUnits="userSpaceOnUse" r="21.166656" xlink:href="#a"/><radialGradient id="c" cx="450.90894" cy="189.57936" gradientTransform="matrix(-.00000012 .0537161 .0966889 .00000007 -8.779458 -5.175143)" gradientUnits="userSpaceOnUse" r="21.166656" xlink:href="#a"/><radialGradient id="d" cx="450.90894" cy="189.57936" gradientTransform="matrix(-.00000012 -.0537161 .0966889 -.00000007 -8.779458 43.721791)" gradientUnits="userSpaceOnUse" r="21.166656" xlink:href="#a"/><radialGradient id="e" cx="450.90894" cy="189.57936" gradientTransform="matrix(.00000012 .0537161 -.0966889 .00000007 30.609666 -5.175144)" gradientUnits="userSpaceOnUse" r="21.166656" xlink:href="#a"/><linearGradient id="f" gradientTransform="matrix(.00918504 0 0 .0429729 8.569953 9.239164)" gradientUnits="userSpaceOnUse" x1="255.32306" x2="255.32304" y1="233.5" y2="254.66666"><stop offset="0" stop-opacity=".27451"/><stop offset="1" stop-opacity="0"/></linearGradient><linearGradient id="g" gradientUnits="userSpaceOnUse" x1="254" x2="254" y1="-168.66666" y2="233.5"><stop offset="0" stop-color="#81c784"/><stop offset="1" stop-color="#66bb6a"/></linearGradient><linearGradient id="h" gradientUnits="userSpaceOnUse" x1="10.915104" x2="10.915104" y1="19.27332442218" y2="1.99107551259"><stop offset="0" stop-color="#bdbdbd"/><stop offset="1" stop-color="#e0e0e0"/></linearGradient><path d="m12.507812 19.273438h1.816407v-.910157h-1.816407zm0 0" fill="url(#b)"/><path d="m9.324219 19.273438h-1.820313v.910156h1.820313zm0 0" fill="url(#c)"/><path d="m9.324219 19.273438h-1.820313v-.910157h1.820313zm0 0" fill="url(#d)"/><path d="m12.507812 19.273438h1.816407v.910156h-1.816407zm0 0" fill="url(#e)"/><path d="m9.324219 19.046875h3.183593v1.136719h-3.183593zm0 0" fill="url(#f)"/><path d="m253.975747-168.640791c111.080301 0 201.071707 89.991407 201.071707 201.071708s-89.991406 201.071708-201.071707 201.071708c-110.989402 0-201.071708-89.991407-201.071708-201.071708s90.082306-201.071708 201.071708-201.071708zm0 0" fill="url(#g)" stroke="#333" stroke-linecap="round" stroke-width="3" transform="matrix(.0429729 0 0 .0429729 0 9.239163)"/><path d="m10.914062 19.273438c-4.785156 0-8.640624-3.855469-8.640624-8.640626 0-.027343 0-.058593 0-.085937.046874 4.75 3.882812 8.558594 8.640624 8.558594 4.761719 0 8.597657-3.808594 8.640626-8.558594v.085937c0 4.785157-3.851563 8.640626-8.640626 8.640626zm0 0" fill-opacity=".196078"/><path d="m10.914062 1.992188c-4.785156 0-8.640624 3.851562-8.640624 8.640624v.085938c.046874-4.75 3.882812-8.558594 8.640624-8.558594 4.761719 0 8.597657 3.808594 8.640626 8.558594 0-.03125 0-.058594 0-.085938 0-4.789062-3.851563-8.640624-8.640626-8.640624zm0 0" fill="#fff" fill-opacity=".392157"/><path d="m10.914062 1.925781c-4.820312 0-8.703124 3.882813-8.703124 8.707031 0 4.820313 3.882812 8.703126 8.703124 8.703126 4.824219 0 8.707032-3.882813 8.707032-8.703126 0-4.824218-3.882813-8.707031-8.707032-8.707031zm0 .128907c4.753907 0 8.578126 3.824218 8.578126 8.578124 0 4.75-3.824219 8.574219-8.578126 8.574219-4.75 0-8.574218-3.824219-8.574218-8.574219 0-4.753906 3.824218-8.578124 8.574218-8.578124zm0 0" fill="#212121"/><path d="m10.898438 5.175781c-1.25 0-2.257813.808594-2.257813 1.816407v2.730468h-.917969c-.253906 0-.457031.183594-.457031.410156v.089844c0 .226563.203125.410156.457031.410156h6.367188c.25 0 .453125-.183593.453125-.410156v-.089844c0-.226562-.203125-.410156-.453125-.410156h-.902344v-2.730468c0-1.007813-1.007812-1.816407-2.257812-1.816407zm.015624.910157c.757813 0 1.367188.605468 1.367188 1.363281v2.273437h-2.730469v-2.273437c0-.757813.609375-1.363281 1.363281-1.363281zm-3.191406 5c-.253906 0-.457031.203124-.457031.457031 0 .25.203125.453125.457031.453125h2.28125v-.910156zm4.101563 0v.910156h2.265625c.25 0 .453125-.203125.453125-.453125 0-.253907-.203125-.457031-.453125-.457031zm-4.101563 1.367187c-.253906 0-.457031.199219-.457031.453125 0 .25.203125.453125.457031.453125h2.28125v-.90625zm4.101563 0v.90625h2.265625c.25 0 .453125-.203125.453125-.453125 0-.253906-.203125-.453125-.453125-.453125zm-4.101563 1.363281c-.253906 0-.457031.183594-.457031.410156v.089844c0 .226563.203125.410156.457031.410156h6.367188c.25 0 .453125-.183593.453125-.410156v-.089844c0-.226562-.203125-.410156-.453125-.410156zm0 0" fill="url(#h)"/><path d="m10.898438 5.175781c-1.25 0-2.257813.808594-2.257813 1.816407v.34375c0-1.007813 1.007813-1.820313 2.257813-1.820313h.03125c1.25 0 2.257812.8125 2.257812 1.820313v-.34375c0-1.007813-1.007812-1.816407-2.257812-1.816407zm-3.175782 4.546875c-.253906 0-.457031.183594-.457031.410156v.089844c0 .042969.007813.085938.023437.125.058594-.164062.230469-.285156.433594-.285156h.917969v-.339844zm1.828125 0v.339844h2.730469v-.339844zm3.636719 0v.339844h.902344c.203125 0 .371094.121094.429687.285156.015625-.039062.023438-.082031.023438-.125v-.089844c0-.226562-.203125-.410156-.453125-.410156zm-5.464844 1.363282c-.253906 0-.457031.203124-.457031.457031 0 .058593.011719.117187.035156.167969.066407-.164063.230469-.28125.421875-.28125h2.28125v-.34375zm4.101563 0v.34375h2.265625c.191406 0 .351562.117187.421875.28125.019531-.050782.03125-.109376.03125-.167969 0-.253907-.203125-.457031-.453125-.457031zm-4.101563 1.367187c-.253906 0-.457031.199219-.457031.453125 0 .058594.011719.117188.035156.171875.066407-.167969.230469-.285156.421875-.285156h2.28125v-.339844zm4.101563 0v.339844h2.265625c.191406 0 .351562.117187.421875.285156.019531-.054687.03125-.113281.03125-.171875 0-.253906-.203125-.453125-.453125-.453125zm-4.101563 1.363281c-.253906 0-.457031.183594-.457031.410156v.089844c0 .042969.007813.085938.023437.125.058594-.164062.230469-.285156.433594-.285156h6.367188c.203125 0 .371094.121094.429687.285156.015625-.039062.023438-.082031.023438-.125v-.089844c0-.226562-.203125-.410156-.453125-.410156zm0 0" fill="#fff" fill-opacity=".392157"/><path d="m10.914062 6.085938c-.753906 0-1.363281.605468-1.363281 1.363281v.453125c0-.753906.609375-1.363282 1.363281-1.363282.757813 0 1.367188.609376 1.367188 1.363282v-.453125c0-.757813-.609375-1.363281-1.367188-1.363281zm-3.601562 4.320312c-.03125.054688-.046875.117188-.046875.179688v.089843c0 .226563.203125.410157.457031.410157h6.367188c.25 0 .453125-.183594.453125-.410157v-.089843c0-.0625-.015625-.125-.046875-.179688-.074219.132812-.230469.226562-.40625.226562h-6.367188c-.179687 0-.335937-.09375-.410156-.226562zm.015625 1.363281c-.039063.066407-.0625.144531-.0625.226563 0 .253906.203125.457031.457031.457031h2.28125v-.457031h-2.28125c-.171875 0-.316406-.089844-.394531-.226563zm7.152344 0c-.078125.136719-.222657.226563-.390625.226563h-2.265625v.457031h2.265625c.25 0 .453125-.203125.453125-.457031 0-.082032-.023438-.160156-.0625-.226563zm-7.152344 1.363281c-.039063.066407-.0625.144532-.0625.226563 0 .253906.203125.457031.457031.457031h2.28125v-.457031h-2.28125c-.171875 0-.316406-.089844-.394531-.226563zm7.152344 0c-.078125.136719-.222657.226563-.390625.226563h-2.265625v.457031h2.265625c.25 0 .453125-.203125.453125-.457031 0-.082031-.023438-.160156-.0625-.226563zm-7.167969 1.363282c-.03125.058594-.046875.117187-.046875.183594v.089843c0 .226563.203125.410157.457031.410157h6.367188c.25 0 .453125-.183594.453125-.410157v-.089843c0-.066407-.015625-.125-.046875-.183594-.074219.136718-.230469.230468-.40625.230468h-6.367188c-.179687 0-.335937-.09375-.410156-.230468zm0 0" fill-opacity=".235294"/><path d="m958.534103 455.217809c-109.939395 0-198.578033 71.117046-198.578033 159.755684v240.148866h-80.736743c-22.33144 0-40.196592 16.147349-40.196592 36.073864v7.901894c0 19.926516 17.865152 36.073864 40.196592 36.073864h560.003795c21.987879 0 39.85303-16.147348 39.85303-36.073864v-7.901894c0-19.926515-17.865151-36.073864-39.85303-36.073864h-79.362501v-240.148866c0-88.638638-88.638638-159.755684-198.578033-159.755684zm1.374242 80.049622c66.650759 0 120.246214 53.251895 120.246214 119.902653v199.952275h-240.148867v-199.952275c0-66.650758 53.595456-119.902653 119.902653-119.902653zm-280.689018 439.757581c-22.33144 0-40.196592 17.865152-40.196592 40.196592 0 21.987879 17.865152 39.853031 40.196592 39.853031h200.639396v-80.049623zm360.738641 0v80.049623h199.265154c21.987879 0 39.85303-17.865152 39.85303-39.853031 0-22.33144-17.865151-40.196592-39.85303-40.196592zm-360.738641 120.246214c-22.33144 0-40.196592 17.521591-40.196592 39.853031 0 21.987879 17.865152 39.853031 40.196592 39.853031h200.639396v-79.706062zm360.738641 0v79.706062h199.265154c21.987879 0 39.85303-17.865152 39.85303-39.853031 0-22.33144-17.865151-39.853031-39.85303-39.853031zm-360.738641 119.902653c-22.33144 0-40.196592 16.147349-40.196592 36.073864v7.901894c0 19.926515 17.865152 36.073864 40.196592 36.073864h560.003795c21.987879 0 39.85303-16.147349 39.85303-36.073864v-7.901894c0-19.926515-17.865151-36.073864-39.85303-36.073864zm0 0" fill="none" stroke="#212121" stroke-linecap="round" stroke-width="11.338583" transform="scale(.0113699)"/></svg>

<?xml version="1.0" encoding="UTF-8"?>
<svg xmlns="http://www.w3.org/2000/svg" xmlns:xlink="http://www.w3.org/1999/xlink" width="22pt" height="22pt" viewBox="0 0 22 22" version="1.1">
<defs>
<radialGradient id="radial0" gradientUnits="userSpaceOnUse" cx="450.90894" cy="189.57936" fx="450.90894" fy="189.57936" r="21.166656" gradientTransform="matrix(0.000000119742,-0.0537161,-0.0966889,-0.0000000698078,30.609667,43.721791)">
<stop offset="0" style="stop-color:rgb(0%,0%,0%);stop-opacity:0.313725;"/>
<stop offset="0.222222" style="stop-color:rgb(0%,0%,0%);stop-opacity:0.27451;"/>
<stop offset="1" style="stop-color:rgb(0%,0%,0%);stop-opacity:0;"/>
</radialGradient>
<radialGradient id="radial1" gradientUnits="userSpaceOnUse" cx="450.90894" cy="189.57936" fx="450.90894" fy="189.57936" r="21.166656" gradientTransform="matrix(-0.000000119742,0.0537161,0.0966889,0.0000000698078,-8.779458,-5.175143)">
<stop offset="0" style="stop-color:rgb(0%,0%,0%);stop-opacity:0.313725;"/>
<stop offset="0.222222" style="stop-color:rgb(0%,0%,0%);stop-opacity:0.27451;"/>
<stop offset="1" style="stop-color:rgb(0%,0%,0%);stop-opacity:0;"/>
</radialGradient>
<radialGradient id="radial2" gradientUnits="userSpaceOnUse" cx="450.90894" cy="189.57936" fx="450.90894" fy="189.57936" r="21.166656" gradientTransform="matrix(-0.000000119742,-0.0537161,0.0966889,-0.0000000698078,-8.779458,43.721791)">
<stop offset="0" style="stop-color:rgb(0%,0%,0%);stop-opacity:0.313725;"/>
<stop offset="0.222222" style="stop-color:rgb(0%,0%,0%);stop-opacity:0.27451;"/>
<stop offset="1" style="stop-color:rgb(0%,0%,0%);stop-opacity:0;"/>
</radialGradient>
<radialGradient id="radial3" gradientUnits="userSpaceOnUse" cx="450.90894" cy="189.57936" fx="450.90894" fy="189.57936" r="21.166656" gradientTransform="matrix(0.000000119742,0.0537161,-0.0966889,0.0000000698078,30.609666,-5.175144)">
<stop offset="0" style="stop-color:rgb(0%,0%,0%);stop-opacity:0.313725;"/>
<stop offset="0.222222" style="stop-color:rgb(0%,0%,0%);stop-opacity:0.27451;"/>
<stop offset="1" style="stop-color:rgb(0%,0%,0%);stop-opacity:0;"/>
</radialGradient>
<linearGradient id="linear0" gradientUnits="userSpaceOnUse" x1="255.32306" y1="233.5" x2="255.32304" y2="254.66666" gradientTransform="matrix(0.00918504,0,0,0.0429729,8.569953,9.239164)">
<stop offset="0" style="stop-color:rgb(0%,0%,0%);stop-opacity:0.27451;"/>
<stop offset="1" style="stop-color:rgb(0%,0%,0%);stop-opacity:0;"/>
</linearGradient>
<linearGradient id="linear1" gradientUnits="userSpaceOnUse" x1="254" y1="-168.66666" x2="254" y2="233.5" >
<stop offset="0" style="stop-color:rgb(50.588235%,78.039216%,51.764706%);stop-opacity:1;"/>
<stop offset="1" style="stop-color:rgb(40%,73.333333%,41.568627%);stop-opacity:1;"/>
</linearGradient>
<linearGradient id="linear2" gradientUnits="userSpaceOnUse" x1="960" y1="1695.1182" x2="960" y2="175.11812" gradientTransform="matrix(0.0113699,0,0,0.0113699,0,0)">
<stop offset="0" style="stop-color:rgb(74.117647%,74.117647%,74.117647%);stop-opacity:1;"/>
<stop offset="1" style="stop-color:rgb(87.843137%,87.843137%,87.843137%);stop-opacity:1;"/>
</linearGradient>
</defs>
<g id="surface1">
<path style=" stroke:none;fill-rule:nonzero;fill:url(#radial0);" d="M 12.507812 19.273438 L 14.324219 19.273438 L 14.324219 18.363281 L 12.507812 18.363281 Z M 12.507812 19.273438 "/>
<path style=" stroke:none;fill-rule:nonzero;fill:url(#radial1);" d="M 9.324219 19.273438 L 7.503906 19.273438 L 7.503906 20.183594 L 9.324219 20.183594 Z M 9.324219 19.273438 "/>
<path style=" stroke:none;fill-rule:nonzero;fill:url(#radial2);" d="M 9.324219 19.273438 L 7.503906 19.273438 L 7.503906 18.363281 L 9.324219 18.363281 Z M 9.324219 19.273438 "/>
<path style=" stroke:none;fill-rule:nonzero;fill:url(#radial3);" d="M 12.507812 19.273438 L 14.324219 19.273438 L 14.324219 20.183594 L 12.507812 20.183594 Z M 12.507812 19.273438 "/>
<path style=" stroke:none;fill-rule:nonzero;fill:url(#linear0);" d="M 9.324219 19.046875 L 12.507812 19.046875 L 12.507812 20.183594 L 9.324219 20.183594 Z M 9.324219 19.046875 "/>
<path style="fill-rule:nonzero;fill:url(#linear1);stroke-width:3;stroke-linecap:round;stroke-linejoin:miter;stroke:rgb(20%,20%,20%);stroke-opacity:1;stroke-miterlimit:4;" d="M 253.975747 -168.640791 C 365.056048 -168.640791 455.047454 -78.649384 455.047454 32.430917 C 455.047454 143.511218 365.056048 233.502625 253.975747 233.502625 C 142.986345 233.502625 52.904039 143.511218 52.904039 32.430917 C 52.904039 -78.649384 142.986345 -168.640791 253.975747 -168.640791 Z M 253.975747 -168.640791 " transform="matrix(0.0429729,0,0,0.0429729,0,9.239163)"/>
<path style=" stroke:none;fill-rule:nonzero;fill:rgb(0%,0%,0%);fill-opacity:0.196078;" d="M 10.914062 19.273438 C 6.128906 19.273438 2.273438 15.417969 2.273438 10.632812 C 2.273438 10.605469 2.273438 10.574219 2.273438 10.546875 C 2.320312 15.296875 6.15625 19.105469 10.914062 19.105469 C 15.675781 19.105469 19.511719 15.296875 19.554688 10.546875 C 19.554688 10.574219 19.554688 10.605469 19.554688 10.632812 C 19.554688 15.417969 15.703125 19.273438 10.914062 19.273438 Z M 10.914062 19.273438 "/>
<path style=" stroke:none;fill-rule:nonzero;fill:rgb(100%,100%,100%);fill-opacity:0.392157;" d="M 10.914062 1.992188 C 6.128906 1.992188 2.273438 5.84375 2.273438 10.632812 C 2.273438 10.660156 2.273438 10.6875 2.273438 10.71875 C 2.320312 5.96875 6.15625 2.160156 10.914062 2.160156 C 15.675781 2.160156 19.511719 5.96875 19.554688 10.71875 C 19.554688 10.6875 19.554688 10.660156 19.554688 10.632812 C 19.554688 5.84375 15.703125 1.992188 10.914062 1.992188 Z M 10.914062 1.992188 "/>
<path style=" stroke:none;fill-rule:nonzero;fill:rgb(12.941176%,12.941176%,12.941176%);fill-opacity:1;" d="M 10.914062 1.925781 C 6.09375 1.925781 2.210938 5.808594 2.210938 10.632812 C 2.210938 15.453125 6.09375 19.335938 10.914062 19.335938 C 15.738281 19.335938 19.621094 15.453125 19.621094 10.632812 C 19.621094 5.808594 15.738281 1.925781 10.914062 1.925781 Z M 10.914062 2.054688 C 15.667969 2.054688 19.492188 5.878906 19.492188 10.632812 C 19.492188 15.382812 15.667969 19.207031 10.914062 19.207031 C 6.164062 19.207031 2.339844 15.382812 2.339844 10.632812 C 2.339844 5.878906 6.164062 2.054688 10.914062 2.054688 Z M 10.914062 2.054688 "/>
<path style=" stroke:none;fill-rule:nonzero;fill:url(#linear2);" d="M 10.898438 5.175781 C 9.648438 5.175781 8.640625 5.984375 8.640625 6.992188 L 8.640625 9.722656 L 7.722656 9.722656 C 7.46875 9.722656 7.265625 9.90625 7.265625 10.132812 L 7.265625 10.222656 C 7.265625 10.449219 7.46875 10.632812 7.722656 10.632812 L 14.089844 10.632812 C 14.339844 10.632812 14.542969 10.449219 14.542969 10.222656 L 14.542969 10.132812 C 14.542969 9.90625 14.339844 9.722656 14.089844 9.722656 L 13.1875 9.722656 L 13.1875 6.992188 C 13.1875 5.984375 12.179688 5.175781 10.929688 5.175781 Z M 10.914062 6.085938 C 11.671875 6.085938 12.28125 6.691406 12.28125 7.449219 L 12.28125 9.722656 L 9.550781 9.722656 L 9.550781 7.449219 C 9.550781 6.691406 10.160156 6.085938 10.914062 6.085938 Z M 7.722656 11.085938 C 7.46875 11.085938 7.265625 11.289062 7.265625 11.542969 C 7.265625 11.792969 7.46875 11.996094 7.722656 11.996094 L 10.003906 11.996094 L 10.003906 11.085938 Z M 11.824219 11.085938 L 11.824219 11.996094 L 14.089844 11.996094 C 14.339844 11.996094 14.542969 11.792969 14.542969 11.542969 C 14.542969 11.289062 14.339844 11.085938 14.089844 11.085938 Z M 7.722656 12.453125 C 7.46875 12.453125 7.265625 12.652344 7.265625 12.90625 C 7.265625 13.15625 7.46875 13.359375 7.722656 13.359375 L 10.003906 13.359375 L 10.003906 12.453125 Z M 11.824219 12.453125 L 11.824219 13.359375 L 14.089844 13.359375 C 14.339844 13.359375 14.542969 13.15625 14.542969 12.90625 C 14.542969 12.652344 14.339844 12.453125 14.089844 12.453125 Z M 7.722656 13.816406 C 7.46875 13.816406 7.265625 14 7.265625 14.226562 L 7.265625 14.316406 C 7.265625 14.542969 7.46875 14.726562 7.722656 14.726562 L 14.089844 14.726562 C 14.339844 14.726562 14.542969 14.542969 14.542969 14.316406 L 14.542969 14.226562 C 14.542969 14 14.339844 13.816406 14.089844 13.816406 Z M 7.722656 13.816406 "/>
<path style=" stroke:none;fill-rule:nonzero;fill:rgb(100%,100%,100%);fill-opacity:0.392157;" d="M 10.898438 5.175781 C 9.648438 5.175781 8.640625 5.984375 8.640625 6.992188 L 8.640625 7.335938 C 8.640625 6.328125 9.648438 5.515625 10.898438 5.515625 L 10.929688 5.515625 C 12.179688 5.515625 13.1875 6.328125 13.1875 7.335938 L 13.1875 6.992188 C 13.1875 5.984375 12.179688 5.175781 10.929688 5.175781 Z M 7.722656 9.722656 C 7.46875 9.722656 7.265625 9.90625 7.265625 10.132812 L 7.265625 10.222656 C 7.265625 10.265625 7.273438 10.308594 7.289062 10.347656 C 7.347656 10.183594 7.519531 10.0625 7.722656 10.0625 L 8.640625 10.0625 L 8.640625 9.722656 Z M 9.550781 9.722656 L 9.550781 10.0625 L 12.28125 10.0625 L 12.28125 9.722656 Z M 13.1875 9.722656 L 13.1875 10.0625 L 14.089844 10.0625 C 14.292969 10.0625 14.460938 10.183594 14.519531 10.347656 C 14.535156 10.308594 14.542969 10.265625 14.542969 10.222656 L 14.542969 10.132812 C 14.542969 9.90625 14.339844 9.722656 14.089844 9.722656 Z M 7.722656 11.085938 C 7.46875 11.085938 7.265625 11.289062 7.265625 11.542969 C 7.265625 11.601562 7.277344 11.660156 7.300781 11.710938 C 7.367188 11.546875 7.53125 11.429688 7.722656 11.429688 L 10.003906 11.429688 L 10.003906 11.085938 Z M 11.824219 11.085938 L 11.824219 11.429688 L 14.089844 11.429688 C 14.28125 11.429688 14.441406 11.546875 14.511719 11.710938 C 14.53125 11.660156 14.542969 11.601562 14.542969 11.542969 C 14.542969 11.289062 14.339844 11.085938 14.089844 11.085938 Z M 7.722656 12.453125 C 7.46875 12.453125 7.265625 12.652344 7.265625 12.90625 C 7.265625 12.964844 7.277344 13.023438 7.300781 13.078125 C 7.367188 12.910156 7.53125 12.792969 7.722656 12.792969 L 10.003906 12.792969 L 10.003906 12.453125 Z M 11.824219 12.453125 L 11.824219 12.792969 L 14.089844 12.792969 C 14.28125 12.792969 14.441406 12.910156 14.511719 13.078125 C 14.53125 13.023438 14.542969 12.964844 14.542969 12.90625 C 14.542969 12.652344 14.339844 12.453125 14.089844 12.453125 Z M 7.722656 13.816406 C 7.46875 13.816406 7.265625 14 7.265625 14.226562 L 7.265625 14.316406 C 7.265625 14.359375 7.273438 14.402344 7.289062 14.441406 C 7.347656 14.277344 7.519531 14.15625 7.722656 14.15625 L 14.089844 14.15625 C 14.292969 14.15625 14.460938 14.277344 14.519531 14.441406 C 14.535156 14.402344 14.542969 14.359375 14.542969 14.316406 L 14.542969 14.226562 C 14.542969 14 14.339844 13.816406 14.089844 13.816406 Z M 7.722656 13.816406 "/>
<path style=" stroke:none;fill-rule:nonzero;fill:rgb(0%,0%,0%);fill-opacity:0.235294;" d="M 10.914062 6.085938 C 10.160156 6.085938 9.550781 6.691406 9.550781 7.449219 L 9.550781 7.902344 C 9.550781 7.148438 10.160156 6.539062 10.914062 6.539062 C 11.671875 6.539062 12.28125 7.148438 12.28125 7.902344 L 12.28125 7.449219 C 12.28125 6.691406 11.671875 6.085938 10.914062 6.085938 Z M 7.3125 10.40625 C 7.28125 10.460938 7.265625 10.523438 7.265625 10.585938 L 7.265625 10.675781 C 7.265625 10.902344 7.46875 11.085938 7.722656 11.085938 L 14.089844 11.085938 C 14.339844 11.085938 14.542969 10.902344 14.542969 10.675781 L 14.542969 10.585938 C 14.542969 10.523438 14.527344 10.460938 14.496094 10.40625 C 14.421875 10.539062 14.265625 10.632812 14.089844 10.632812 L 7.722656 10.632812 C 7.542969 10.632812 7.386719 10.539062 7.3125 10.40625 Z M 7.328125 11.769531 C 7.289062 11.835938 7.265625 11.914062 7.265625 11.996094 C 7.265625 12.25 7.46875 12.453125 7.722656 12.453125 L 10.003906 12.453125 L 10.003906 11.996094 L 7.722656 11.996094 C 7.550781 11.996094 7.40625 11.90625 7.328125 11.769531 Z M 14.480469 11.769531 C 14.402344 11.90625 14.257812 11.996094 14.089844 11.996094 L 11.824219 11.996094 L 11.824219 12.453125 L 14.089844 12.453125 C 14.339844 12.453125 14.542969 12.25 14.542969 11.996094 C 14.542969 11.914062 14.519531 11.835938 14.480469 11.769531 Z M 7.328125 13.132812 C 7.289062 13.199219 7.265625 13.277344 7.265625 13.359375 C 7.265625 13.613281 7.46875 13.816406 7.722656 13.816406 L 10.003906 13.816406 L 10.003906 13.359375 L 7.722656 13.359375 C 7.550781 13.359375 7.40625 13.269531 7.328125 13.132812 Z M 14.480469 13.132812 C 14.402344 13.269531 14.257812 13.359375 14.089844 13.359375 L 11.824219 13.359375 L 11.824219 13.816406 L 14.089844 13.816406 C 14.339844 13.816406 14.542969 13.613281 14.542969 13.359375 C 14.542969 13.277344 14.519531 13.199219 14.480469 13.132812 Z M 7.3125 14.496094 C 7.28125 14.554688 7.265625 14.613281 7.265625 14.679688 L 7.265625 14.769531 C 7.265625 14.996094 7.46875 15.179688 7.722656 15.179688 L 14.089844 15.179688 C 14.339844 15.179688 14.542969 14.996094 14.542969 14.769531 L 14.542969 14.679688 C 14.542969 14.613281 14.527344 14.554688 14.496094 14.496094 C 14.421875 14.632812 14.265625 14.726562 14.089844 14.726562 L 7.722656 14.726562 C 7.542969 14.726562 7.386719 14.632812 7.3125 14.496094 Z M 7.3125 14.496094 "/>
<path style="fill:none;stroke-width:11.338583;stroke-linecap:round;stroke-linejoin:miter;stroke:rgb(12.941176%,12.941176%,12.941176%);stroke-opacity:1;stroke-miterlimit:4;" d="M 958.534103 455.217809 C 848.594708 455.217809 759.95607 526.334855 759.95607 614.973493 L 759.95607 855.122359 L 679.219327 855.122359 C 656.887887 855.122359 639.022735 871.269708 639.022735 891.196223 L 639.022735 899.098117 C 639.022735 919.024633 656.887887 935.171981 679.219327 935.171981 L 1239.223122 935.171981 C 1261.211001 935.171981 1279.076152 919.024633 1279.076152 899.098117 L 1279.076152 891.196223 C 1279.076152 871.269708 1261.211001 855.122359 1239.223122 855.122359 L 1159.860621 855.122359 L 1159.860621 614.973493 C 1159.860621 526.334855 1071.221983 455.217809 961.282588 455.217809 Z M 959.908345 535.267431 C 1026.559104 535.267431 1080.154559 588.519326 1080.154559 655.170084 L 1080.154559 855.122359 L 840.005692 855.122359 L 840.005692 655.170084 C 840.005692 588.519326 893.601148 535.267431 959.908345 535.267431 Z M 679.219327 975.025012 C 656.887887 975.025012 639.022735 992.890164 639.022735 1015.221604 C 639.022735 1037.209483 656.887887 1055.074635 679.219327 1055.074635 L 879.858723 1055.074635 L 879.858723 975.025012 Z M 1039.957968 975.025012 L 1039.957968 1055.074635 L 1239.223122 1055.074635 C 1261.211001 1055.074635 1279.076152 1037.209483 1279.076152 1015.221604 C 1279.076152 992.890164 1261.211001 975.025012 1239.223122 975.025012 Z M 679.219327 1095.271226 C 656.887887 1095.271226 639.022735 1112.792817 639.022735 1135.124257 C 639.022735 1157.112136 656.887887 1174.977288 679.219327 1174.977288 L 879.858723 1174.977288 L 879.858723 1095.271226 Z M 1039.957968 1095.271226 L 1039.957968 1174.977288 L 1239.223122 1174.977288 C 1261.211001 1174.977288 1279.076152 1157.112136 1279.076152 1135.124257 C 1279.076152 1112.792817 1261.211001 1095.271226 1239.223122 1095.271226 Z M 679.219327 1215.173879 C 656.887887 1215.173879 639.022735 1231.321228 639.022735 1251.247743 L 639.022735 1259.149637 C 639.022735 1279.076152 656.887887 1295.223501 679.219327 1295.223501 L 1239.223122 1295.223501 C 1261.211001 1295.223501 1279.076152 1279.076152 1279.076152 1259.149637 L 1279.076152 1251.247743 C 1279.076152 1231.321228 1261.211001 1215.173879 1239.223122 1215.173879 Z M 679.219327 1215.173879 " transform="matrix(0.0113699,0,0,0.0113699,0,0)"/>
</g>
</svg>
